docs/.gitbook/assets/icon-rewind-filled-16@light.svg

<svg width="32" height="32" viewBox="0 0 16 16" fill="none" xmlns="http://www.w3.org/2000/svg">
<rect x="0" y="0" width="16" height="16" fill="#fff"/>
<path fill-rule="evenodd" clip-rule="evenodd" d="M9.62761 3.102C9.39703 2.96763 9.11242 2.96591 8.88024 3.09748L1.38024 7.34748C1.14524 7.48065 1 7.72989 1 8C1 8.27011 1.14524 8.51935 1.38024 8.65252L8.88024 12.9025C9.11242 13.0341 9.39703 13.0324 9.62761 12.898C9.85819 12.7636 10 12.5169 10 12.25V3.75C10 3.48313 9.85819 3.23636 9.62761 3.102Z" fill="#000"/>
<path fill-rule="evenodd" clip-rule="evenodd" d="M14.6039 3.08875C14.36 2.95823 14.0641 2.97254 13.834 3.12596L12.334 4.12596C12.1253 4.26506 12 4.49924 12 4.75V11.25C12 11.5008 12.1253 11.7349 12.334 11.874L13.834 12.874C14.0641 13.0275 14.36 13.0418 14.6039 12.9113C14.8478 12.7807 15 12.5266 15 12.25V3.75C15 3.4734 14.8478 3.21926 14.6039 3.08875Z" fill="#000"/>
</svg>

<svg xmlns="http://www.w3.org/2000/svg" width="32" height="32" fill="none" viewBox="0 0 16 16"><path fill="#fff" d="M0 0h16v16H0z"/><path fill="#000" fill-rule="evenodd" d="M9.628 3.102a.75.75 0 0 0-.748-.005l-7.5 4.25a.75.75 0 0 0 0 1.306l7.5 4.25A.75.75 0 0 0 10 12.25v-8.5a.75.75 0 0 0-.372-.648m4.976-.013a.75.75 0 0 0-.77.037l-1.5 1A.75.75 0 0 0 12 4.75v6.5c0 .25.125.485.334.624l1.5 1A.75.75 0 0 0 15 12.25v-8.5a.75.75 0 0 0-.396-.661" clip-rule="evenodd"/></svg>
